brandFactory_export/2.Regular/Noticias_2Regular.svg

<?xml version="1.0" encoding="UTF-8"?>
<svg width="24px" height="24px" viewBox="0 0 24 24" version="1.1" xmlns="http://www.w3.org/2000/svg" xmlns:xlink="http://www.w3.org/1999/xlink">
    <title>2.Regular/Noticias_2Regular</title>
    <g id="Symbols" stroke="none" stroke-width="1" fill="none" fill-rule="evenodd">
        <g id="2.Regular/Noticias_2Regular" fill="#5CB615" fill-rule="nonzero">
            <path d="M17.2470588,4.23193277 C17.5428571,4.45042017 17.7176471,4.80336134 17.7176471,5.17983193 L17.7176471,18.6218487 C17.7176471,18.994958 17.5428571,19.3512605 17.2504202,19.5663866 C17.0554622,19.7109244 16.8302521,19.7848739 16.6016807,19.7848739 C16.497479,19.7848739 16.389916,19.7680672 16.2857143,19.7378151 L9.737,17.7656045 L9.49915966,18.5243697 C9.42184874,18.7764706 9.25042017,18.9815126 9.01512605,19.102521 C8.87394958,19.1798319 8.71932773,19.2168067 8.56134454,19.2168067 C8.46386555,19.2168067 8.36302521,19.2033613 8.26554622,19.1697479 L5.54285714,18.3159664 C5.02521008,18.1546218 4.73613445,17.6 4.89747899,17.0823529 L5.119,16.3756045 L1.26739882,15.2156652 C1.20155132,15.5005222 0.947774914,15.7109244 0.642016807,15.7109244 C0.285714286,15.7109244 -2.00532924e-10,15.4218487 -2.00532924e-10,15.0689076 L-2.00532924e-10,8.72941176 C-2.00532924e-10,8.37310924 0.28907563,8.08739496 0.642016807,8.08739496 C0.944537815,8.08739496 1.2001372,8.29977705 1.26699169,8.58271799 L16.2857143,4.0605042 C16.6151261,3.95966387 16.9680672,4.02352941 17.2470588,4.23193277 Z M20.7731092,16.0571429 L22.5815126,17.8655462 C22.8369748,18.1210084 22.8369748,18.5378151 22.5815126,18.7932773 C22.4537815,18.9210084 22.2857143,18.9848739 22.1176471,18.9848739 C21.9495798,18.9848739 21.7815126,18.9210084 21.6537815,18.7932773 L19.8453782,16.9848739 C19.589916,16.7294118 19.589916,16.312605 19.8453782,16.0571429 C20.1008403,15.8016807 20.5176471,15.8016807 20.7731092,16.0571429 Z M16.4336134,5.35798319 L1.32436975,9.90588235 L1.32436975,13.892437 L16.4336134,18.4436975 L16.4336134,5.35798319 Z M6.33277311,16.897479 L6.2487395,17.1663866 L8.34621849,17.8252101 L8.4302521,17.5563025 L6.33277311,16.897479 Z M22.9747899,10.9647059 C23.3378151,10.9647059 23.6302521,11.2571429 23.6302521,11.6201681 C23.6302521,11.9831933 23.3378151,12.2756303 22.9747899,12.2756303 L20.3529412,12.2756303 C19.989916,12.2756303 19.697479,11.9831933 19.697479,11.6201681 C19.697479,11.2571429 19.989916,10.9647059 20.3529412,10.9647059 L22.9747899,10.9647059 Z M22.5915966,4.3697479 C22.8470588,4.62521008 22.8470588,5.04201681 22.5915966,5.29747899 L20.7361345,7.15294118 C20.6084034,7.28067227 20.4403361,7.34453782 20.2722689,7.34453782 C20.1042017,7.34453782 19.9361345,7.28067227 19.8084034,7.15294118 C19.5529412,6.89747899 19.5529412,6.48067227 19.8084034,6.22521008 L21.6638655,4.3697479 C21.9193277,4.11428571 22.3361345,4.11428571 22.5915966,4.3697479 Z" id="Noticias_2Regular"></path>
        </g>
    </g>
</svg>

<svg width="24" height="24" viewBox="0 0 24 24" xmlns="http://www.w3.org/2000/svg"><path d="M17.247 4.232c.296.218.47.571.47.948v13.442c0 .373-.174.73-.467.944a1.085 1.085 0 01-.964.172l-6.549-1.972-.238.758a.962.962 0 01-.484.579.938.938 0 01-.75.067l-2.722-.854a.986.986 0 01-.646-1.234l.222-.706-3.852-1.16A.642.642 0 010 15.069v-6.34a.642.642 0 011.267-.146L16.286 4.06c.33-.101.682-.037.961.17zm3.526 11.825l1.809 1.809a.657.657 0 01-.464 1.119.654.654 0 01-.464-.192l-1.809-1.808a.657.657 0 010-.928.657.657 0 01.928 0zm-4.34-10.699L1.325 9.906v3.986l15.11 4.552V5.358zm-10.1 11.54l-.084.268 2.097.66.084-.27-2.097-.659zm16.642-5.933a.654.654 0 110 1.31h-2.622a.654.654 0 01-.656-.655c0-.363.293-.655.656-.655h2.622zm-.383-6.595a.657.657 0 010 .927l-1.856 1.856a.654.654 0 01-.928 0 .657.657 0 010-.928l1.856-1.855a.657.657 0 01.928 0z" fill="#5CB615" fill-rule="nonzero"/></svg>
